icon/io/cellular.svg

<svg xmlns="http://www.w3.org/2000/svg" width="512" height="512"><path d="M472 432h-48a24 24 0 0 1-24-24V104a24 24 0 0 1 24-24h48a24 24 0 0 1 24 24v304a24 24 0 0 1-24 24ZM344 432h-48a24 24 0 0 1-24-24V184a24 24 0 0 1 24-24h48a24 24 0 0 1 24 24v224a24 24 0 0 1-24 24ZM216 432h-48a24 24 0 0 1-24-24V248a24 24 0 0 1 24-24h48a24 24 0 0 1 24 24v160a24 24 0 0 1-24 24ZM88 432H40a24 24 0 0 1-24-24v-96a24 24 0 0 1 24-24h48a24 24 0 0 1 24 24v96a24 24 0 0 1-24 24Z"/></svg>

<svg xmlns="http://www.w3.org/2000/svg" viewBox="0 0 512 512" height="1em" width="1em">
  <path d="M472,432H424a24,24,0,0,1-24-24V104a24,24,0,0,1,24-24h48a24,24,0,0,1,24,24V408A24,24,0,0,1,472,432Z"/>
  <path d="M344,432H296a24,24,0,0,1-24-24V184a24,24,0,0,1,24-24h48a24,24,0,0,1,24,24V408A24,24,0,0,1,344,432Z"/>
  <path d="M216,432H168a24,24,0,0,1-24-24V248a24,24,0,0,1,24-24h48a24,24,0,0,1,24,24V408A24,24,0,0,1,216,432Z"/>
  <path d="M88,432H40a24,24,0,0,1-24-24V312a24,24,0,0,1,24-24H88a24,24,0,0,1,24,24v96A24,24,0,0,1,88,432Z"/>
</svg>
